X: 3200
T: The HIGHLANDMAN'S COWL
Q: "Highland Schottische."
R: Schottische.
%R: shottish
B: James Kerr "Merry Melodies" v.3 p.23 #200
Z: 2016 John Chambers <jc:trillian.mit.edu>
M: C
L: 1/16
K: A
=g2 |\
eA3 c3d e3cA3d | cA3 e3c B4-B2d2 |\
cA3 c3d e3d A2Bc | dB3 =G3B A4-A2 :|
|: a2 |\
f3e fgaf e3cA3a | f3e fa3 B4-B2a2 |\
f3e fgaf e3c A2(Bc) | dB3 =G3B A4-A2 :|

%%sep 1 1 500
%%sep 1 1 500

